brandFactory_export/2.Regular/Musica_2Regular.svg

<?xml version="1.0" encoding="UTF-8"?>
<svg width="24px" height="24px" viewBox="0 0 24 24" version="1.1" xmlns="http://www.w3.org/2000/svg" xmlns:xlink="http://www.w3.org/1999/xlink">
    <title>2.Regular/Musica_2Regular</title>
    <g id="Symbols" stroke="none" stroke-width="1" fill="none" fill-rule="evenodd">
        <g id="2.Regular/Musica_2Regular" fill="#5CB615" fill-rule="nonzero">
            <path d="M18.6117647,22.1008403 L18.3260504,22.1042017 C17.3815126,22.0907563 15.8016807,21.7310924 15.8016807,19.4588235 C15.8016807,17.1966387 17.3613445,16.8436975 18.292437,16.8336134 L18.5983193,16.8369748 C19.5495798,16.8605042 21.1462185,17.2336134 21.1462185,19.4756303 C21.1428571,21.7210084 19.5596639,22.0840336 18.6117647,22.1008403 Z M10.4302521,3.37478992 L10.4302521,1.61344538 L21.1428571,4.47731092 L21.1428571,6.23865546 L10.4302521,3.37478992 Z M6.3697479,17.1226891 C6.28235294,17.1260504 6.18151261,17.1260504 6.08067227,17.1226891 C5.13613445,17.1092437 3.55630252,16.7462185 3.55630252,14.4773109 C3.55630252,12.2117647 5.12268908,11.8588235 6.05378151,11.8521008 L6.35294118,11.8554622 C7.28739496,11.8756303 8.84033613,12.2487395 8.8907563,14.4 L8.8907563,14.594958 C8.84033613,16.7428571 7.30084034,17.102521 6.3697479,17.1226891 L6.3697479,17.1226891 Z M22.6857143,4.26890756 C22.6857143,3.61008403 22.1714286,3.06554622 21.5193277,3.00168067 L10.3831933,0.0268907563 L10.1815126,0 C9.46890756,0 8.8907563,0.571428571 8.8907563,1.27394958 L8.8907563,11.1529412 C8.14453782,10.6117647 7.24033613,10.3563025 6.38655462,10.3361345 C6.2789916,10.3327731 6.14789916,10.3327731 6.03697479,10.3327731 C4.18151261,10.3462185 2.01344538,11.4420168 2.01344538,14.4773109 C2.01344538,17.5092437 4.19159664,18.6151261 6.05378151,18.6420168 L6.39663866,18.6420168 C8.18487395,18.6084034 10.2352941,17.5731092 10.4067227,14.8470588 L10.4302521,14.8470588 L10.4302521,14.594958 C10.4302521,14.5613445 10.4403361,14.5310924 10.4403361,14.497479 C10.4403361,14.4638655 10.4302521,14.4369748 10.4302521,14.4033613 L10.4302521,4.9512605 L21.1428571,7.81512605 L21.1428571,16.1411765 C20.3932773,15.5966387 19.4857143,15.3378151 18.6319328,15.3176471 L18.2823529,15.3142857 C16.4268908,15.3277311 14.2588235,16.4235294 14.2588235,19.4588235 C14.2588235,22.4907563 16.4369748,23.6 18.3058824,23.6268908 L18.4,23.6268908 L18.6420168,23.6235294 C20.507563,23.589916 22.6823529,22.4840336 22.6823529,19.4789916 C22.6823529,19.4184874 22.6689076,19.3714286 22.6655462,19.3142857 L22.6823529,19.3142857 L22.6823529,4.26890756 L22.6857143,4.26890756 Z" id="Musica_2Regular"></path>
        </g>
    </g>
</svg>

<svg width="24" height="24" viewBox="0 0 24 24" xmlns="http://www.w3.org/2000/svg"><path d="M18.612 22.1l-.286.004c-.944-.013-2.524-.373-2.524-2.645 0-2.262 1.56-2.615 2.49-2.625l.306.003c.952.024 2.548.397 2.548 2.639-.003 2.245-1.586 2.608-2.534 2.625zM10.43 3.376V1.613l10.713 2.864V6.24L10.43 3.375zM6.37 17.123a4.14 4.14 0 01-.29 0c-.944-.014-2.524-.377-2.524-2.646 0-2.265 1.567-2.618 2.498-2.625l.299.003c.934.02 2.487.394 2.538 2.545v.195c-.05 2.148-1.59 2.508-2.521 2.528zM22.686 4.269c0-.659-.515-1.203-1.167-1.267L10.383.027 10.182 0C9.469 0 8.89.571 8.89 1.274v9.879c-.746-.541-1.65-.797-2.504-.817-.108-.003-.24-.003-.35-.003-1.855.013-4.024 1.109-4.024 4.144 0 3.032 2.179 4.138 4.04 4.165h.344c1.788-.034 3.838-1.069 4.01-3.795h.023v-.252c0-.034.01-.064.01-.098 0-.033-.01-.06-.01-.094V4.951l10.713 2.864v8.326c-.75-.544-1.657-.803-2.511-.823l-.35-.004c-1.855.014-4.023 1.11-4.023 4.145 0 3.032 2.178 4.141 4.047 4.168h.094l.242-.003c1.866-.034 4.04-1.14 4.04-4.145 0-.06-.013-.108-.016-.165h.016V4.27h.004z" fill="#5CB615" fill-rule="nonzero"/></svg>
